tools/download-figma-icons/icons/action/heart.svg

<svg width="24" height="24" viewBox="0 0 24 24" fill="none" xmlns="http://www.w3.org/2000/svg">
<path fill-rule="evenodd" clip-rule="evenodd" d="M7.7182 4.12512C6.56639 4.12512 5.48061 4.59387 4.65896 5.44512C2.95489 7.21362 2.93763 10.0681 4.6207 11.8081L12.0065 19.4619L19.3796 11.8164C21.0627 10.0711 21.0454 7.21287 19.3413 5.44512C18.5204 4.59387 17.4347 4.12512 16.2836 4.12512C15.1521 4.12512 14.091 4.57962 13.2949 5.40537L12.6766 6.04662C12.5003 6.23037 12.2557 6.33387 12.0013 6.33387C11.7469 6.33387 11.503 6.23112 11.326 6.04737L10.7069 5.40612C9.91001 4.57962 8.849 4.12512 7.71895 4.12512H7.7182ZM12.0065 21.7501C11.7529 21.7501 11.5083 21.6466 11.332 21.4636L3.27154 13.1109C0.895137 10.6539 0.911645 6.63087 3.30906 4.14387C4.48713 2.92212 6.05314 2.25012 7.7182 2.25012H7.71895C9.33674 2.25012 10.854 2.88762 12.0013 4.04637C13.1471 2.88762 14.6643 2.25012 16.2836 2.25012C17.9487 2.25012 19.5139 2.92212 20.6928 4.14387C23.0879 6.62937 23.1044 10.6546 20.7303 13.1169L12.6826 21.4629C12.5048 21.6466 12.2617 21.7501 12.0065 21.7501Z" fill="black"/>
</svg>

<svg width="24" height="24" viewBox="0 0 24 24" fill="none" xmlns="http://www.w3.org/2000/svg"><path fill-rule="evenodd" clip-rule="evenodd" d="M7.718 4.125c-1.152 0-2.237.469-3.059 1.32-1.704 1.769-1.721 4.623-.038 6.363l7.386 7.654 7.373-7.646c1.683-1.745 1.665-4.603-.039-6.37a4.217 4.217 0 0 0-3.057-1.32 4.121 4.121 0 0 0-2.99 1.28l-.617.64a.937.937 0 0 1-1.351.001l-.62-.64A4.121 4.121 0 0 0 7.72 4.124Zm4.289 17.625a.938.938 0 0 1-.675-.286l-8.06-8.353c-2.377-2.457-2.36-6.48.037-8.967C4.487 2.922 6.053 2.25 7.72 2.25c1.618 0 3.135.638 4.282 1.796a5.977 5.977 0 0 1 4.283-1.796c1.665 0 3.23.672 4.409 1.894 2.395 2.485 2.411 6.51.037 8.973l-8.047 8.346a.94.94 0 0 1-.676.287Z" fill="currentColor"/></svg>
